src/assets/selectIconsSpells/buff_4.svg

<svg xmlns="http://www.w3.org/2000/svg" viewBox="0 0 512 512"><path d="M0 0h512v512H0z"/><path fill="#fff" d="M320.938 13.28c-16.646 34.584-38.466 60.157-63.094 60.157-24.522 0-47.035-25.275-63.656-59.593.366 39.358-9.71 90.884-30.938 105.125-21.228 14.24-49.64-12.002-78.844-32.126 17.455 34.04 42.095 67.5 29.78 92.28-12.21 24.576-59.172 35.96-92.874 35.626 29.338 19.29 78.842 45.803 78.844 74.188.002 28.384-49.504 53.71-78.844 73 33.702-.333 80.663 11.612 92.876 36.187 12.227 24.61-9.03 56.31-33.75 85.563 44.826-15.413 65.142-5.735 85.374 10.812h31.75c-42.74-35.413-72.062-107.828-72.062-191.563-.002-118.62 58.92-214.906 131.406-214.906 72.488 0 131.406 96.29 131.406 214.907 0 83.74-29.317 156.153-72.062 191.563h27.313c19.847-14.62 39.796-25.65 89.687-9.28-26.233-30.264-42.2-62.484-29.97-87.095 12.257-24.665 56.658-36.612 90.533-36.188-29.4-19.297-75.344-44.584-75.344-73 0-28.415 45.943-54.89 75.342-74.187-33.874.424-78.273-10.962-90.53-35.625-12.315-24.78 9.982-58.24 27.437-92.28-29.202 20.12-57.583 46.385-78.845 32.124-21.262-14.263-31.382-66.13-30.938-105.69zm-68.97 93.75c-19.56 2.543-37.343 25.564-37.343 55.407 0 16.447 5.67 30.986 14 41.032l10.156 12.218-15.593 2.937c-10.815 2.035-18.743 7.737-25.53 17.063-6.79 9.325-11.984 22.344-15.626 37.343-6.585 27.128-8.078 60.24-8.31 89.47h36.093l.656 8.656 9.124 122.563h76.187l8.095-122.5.563-8.72h34.375c-.026-29.592-.44-63.166-6.407-90.5-3.295-15.095-8.287-28.096-15.156-37.313-6.87-9.216-15.133-14.897-27.28-16.78l-15.94-2.47 10.064-12.593c7.97-9.996 13.375-24.36 13.375-40.406-.002-31.817-19.884-55.313-41.44-55.313-2.54 0-3.96-.103-4.03-.094h-.03z"/></svg>

<?xml version="1.0" encoding="UTF-8" standalone="no"?>
<!DOCTYPE svg PUBLIC "-//W3C//DTD SVG 1.1//EN" "http://www.w3.org/Graphics/SVG/1.1/DTD/svg11.dtd">
<svg width="100%" height="100%" viewBox="0 0 512 512" version="1.1" xmlns="http://www.w3.org/2000/svg" xmlns:xlink="http://www.w3.org/1999/xlink" xml:space="preserve" xmlns:serif="http://www.serif.com/" style="fill-rule:evenodd;clip-rule:evenodd;stroke-linejoin:round;stroke-miterlimit:2;">
    <rect x="0" y="0" width="512" height="512" style="fill-rule:nonzero;"/>
    <path d="M320.938,13.28C304.292,47.864 282.472,73.437 257.844,73.437C233.322,73.437 210.809,48.162 194.188,13.844C194.554,53.202 184.478,104.728 163.25,118.969C142.022,133.209 113.61,106.967 84.406,86.843C101.861,120.883 126.501,154.343 114.186,179.123C101.976,203.699 55.014,215.083 21.312,214.749C50.65,234.039 100.154,260.552 100.156,288.937C100.158,317.321 50.652,342.647 21.312,361.937C55.014,361.604 101.975,373.549 114.188,398.124C126.415,422.734 105.158,454.434 80.438,483.687C125.264,468.274 145.58,477.952 165.812,494.499L197.562,494.499C154.822,459.086 125.5,386.671 125.5,302.936C125.498,184.316 184.42,88.03 256.906,88.03C329.394,88.03 388.312,184.32 388.312,302.937C388.312,386.677 358.995,459.09 316.25,494.5L343.563,494.5C363.41,479.88 383.359,468.85 433.25,485.22C407.017,454.956 391.05,422.736 403.28,398.125C415.537,373.46 459.938,361.513 493.813,361.937C464.413,342.64 418.469,317.353 418.469,288.937C418.469,260.522 464.412,234.047 493.811,214.75C459.937,215.174 415.538,203.788 403.281,179.125C390.966,154.345 413.263,120.885 430.718,86.845C401.516,106.965 373.135,133.23 351.873,118.969C330.611,104.706 320.491,52.839 320.935,13.279L320.938,13.28Z" style="fill:rgb(201,189,115);fill-rule:nonzero;"/>
    <path d="M251.968,107.03L252.001,107.03C252.071,107.021 253.491,107.124 256.031,107.124C277.587,107.124 297.469,130.62 297.471,162.437C297.471,178.483 292.066,192.847 284.096,202.843L274.032,215.436L289.972,217.906C302.119,219.789 310.382,225.47 317.252,234.686C324.121,243.903 329.113,256.904 332.408,271.999C338.375,299.333 338.789,332.907 338.815,362.499L304.44,362.499L303.877,371.219L295.782,493.719L219.595,493.719L210.471,371.156L209.815,362.5L173.722,362.5C173.954,333.27 175.447,300.158 182.032,273.03C185.674,258.031 190.868,245.012 197.658,235.687C204.445,226.361 212.373,220.659 223.188,218.624L238.781,215.687L228.625,203.469C220.295,193.423 214.625,178.884 214.625,162.437C214.625,132.594 232.408,109.573 251.968,107.03Z" style="fill:rgb(198,198,198);"/>
</svg>
